X:1
T:Chestnut Hill, 76.76 D
T:Chestnut Hill, 76.76 D
T:William Pierson Merrill, 1895
T:Public Domain Courtesy of the Cyber Hymnal™
C:William Pierson Merrill, 1895
Z:Public Domain
Z:Courtesy of the Cyber Hymnal™
%%score ( 1 2 ) ( 3 4 )
L:1/8
Q:1/4=110
M:4/4
K:F
V:1 treble 
V:2 treble 
V:3 bass 
V:4 bass 
V:1
 [Ac]2 [Gc]2 [FB]2 [FA]2 | [FG]2 [EG]2 F4 | [Af]2 [Af]2 [ce]2 [Bd]2 | [Ac]4 [FA]4 | %4
 [EG]2 [EG]2 [DF]2 [EG]2 | [FA]2 [F=B]2 [Gc]4 | [Ad]2 [Ae]2 [Af]2 [Ae]2 | d4 [Ec]4 | %8
 [Ac]2 [Gc]2 [FB]2 [FA]2 | [FG]2 [EG]2 F4 | [Af]2 [Af]2 [^Ge]2 [Gd]2 | [Ac]4 [^FA]4 | %12
 G2 [DA]2 [DB]2 [^FA]2 | [GB]2 [Ac]2 [Fd]4 | [Fc]2 [Fc]2 [EB]2 [FA]2 | G4 F4 |] %16
V:2
 x8 | x4 F4 | x8 | x8 | x8 | x8 | x8 | (A2 GF) x4 | x8 | x4 F4 | x8 | x8 | G2 x6 | x8 | x8 | %15
 (F2 E2) F4 |] %16
V:3
 [F,F]2 [F,E]2 [F,D]2 [F,C]2 | [F,=B,]2 [F,_B,]2 [F,A,]4 | [F,C]2 [F,C]2 [F,B,]2 (DE) | %3
 [F,F]4 [F,C]4 | [C,C]2 [C,B,]2 [D,A,]2 [C,C]2 | [F,C]2 [D,G,]2 [E,G,]4 | %6
 [G,D]2 [E,^C]2 [D,D]2 [E,=C]2 | ([F,C]2 [G,=B,]2) [C,C]4 | [F,C]2 [F,E]2 [F,D]2 [F,C]2 | %9
 [F,=B,]2 [F,_B,]2 [F,A,]4 | [D,A,]2 [D,C]2 [E,=B,]2 [E,E]2 | [A,E]4 (D2 C2) | %12
 [G,B,]2 [^F,A,]2 G,2 [D,D]2 | [G,D]2 [F,_E]2 [B,D]4 | [A,C]2 [A,C]2 [G,C]2 [F,C]2 | %15
 ([B,,D]2 CB,) [F,A,]4 |] %16
V:4
 x8 | x8 | x6 F,2 | x8 | x8 | x8 | x8 | x8 | x8 | x8 | x8 | x4 D,4 | x4 G,2 x2 | x8 | x8 | %15
 x2 C,2 x4 |] %16

